Skins/royal-surge.surge-skin/assets/bmp00168.svg

<?xml version="1.0" encoding="UTF-8" standalone="no"?>
<svg
   xmlns:dc="http://purl.org/dc/elements/1.1/"
   xmlns:cc="http://creativecommons.org/ns#"
   xmlns:rdf="http://www.w3.org/1999/02/22-rdf-syntax-ns#"
   xmlns:svg="http://www.w3.org/2000/svg"
   xmlns="http://www.w3.org/2000/svg"
   xmlns:xlink="http://www.w3.org/1999/xlink"
   xmlns:sodipodi="http://sodipodi.sourceforge.net/DTD/sodipodi-0.dtd"
   xmlns:inkscape="http://www.inkscape.org/namespaces/inkscape"
   width="106"
   height="18"
   viewbox="0 0 133 18"
   version="1.1"
   id="svg10842"
   sodipodi:docname="bmp00168.svg"
   inkscape:version="1.0.1 (3bc2e813f5, 2020-09-07)">
  <metadata
     id="metadata10846">
    <rdf:RDF>
      <cc:Work
         rdf:about="">
        <dc:format>image/svg+xml</dc:format>
        <dc:type
           rdf:resource="http://purl.org/dc/dcmitype/StillImage" />
        <dc:title></dc:title>
      </cc:Work>
    </rdf:RDF>
  </metadata>
  <sodipodi:namedview
     pagecolor="#454545"
     bordercolor="#ff0000"
     borderopacity="1"
     objecttolerance="10"
     gridtolerance="10"
     guidetolerance="10"
     inkscape:pageopacity="0"
     inkscape:pageshadow="2"
     inkscape:window-width="3753"
     inkscape:window-height="2137"
     id="namedview10844"
     showgrid="false"
     inkscape:zoom="44.87204"
     inkscape:cx="108.32034"
     inkscape:cy="10.429035"
     inkscape:window-x="-8"
     inkscape:window-y="-8"
     inkscape:window-maximized="1"
     inkscape:current-layer="svg10842"
     inkscape:document-rotation="0"
     inkscape:showpageshadow="false" />
  <defs
     id="defs10832">
    <linearGradient
       x1="0.53899997"
       y1="0.91799998"
       x2="0.53899997"
       y2="0.33500001"
       id="gradient_1">
      <stop
         offset="0"
         stop-color="#FFFFFF"
         stop-opacity="0.27058825"
         id="stop10816" />
      <stop
         offset="1"
         stop-color="#2A2A2A"
         stop-opacity="0.6392157"
         id="stop10818" />
    </linearGradient>
    <linearGradient
       x1="0.5"
       y1="0"
       x2="0.5"
       y2="1"
       id="gradient_2">
      <stop
         offset="0"
         stop-color="#372E2C"
         id="stop10821" />
      <stop
         offset="0.176"
         stop-color="#5B4A45"
         id="stop10823" />
      <stop
         offset="1"
         stop-color="#5B4A44"
         id="stop10825" />
    </linearGradient>
    <rect
       width="133"
       height="18"
       id="artboard_1"
       x="0"
       y="0" />
    <clipPath
       id="clip_1">
      <use
         xlink:href="#artboard_1"
         clip-rule="evenodd"
         id="use10829"
         x="0"
         y="0"
         width="100%"
         height="100%" />
    </clipPath>
    <linearGradient
       x1="21.511415"
       y1="38.608257"
       x2="21.492517"
       y2="13.35806"
       id="gradient_1-8"
       gradientTransform="matrix(2.6542147,0,0,0.3761774,3.598776e-4,1)"
       gradientUnits="userSpaceOnUse"
       xlink:href="#gradient_2-2">
      <stop
         offset="0"
         stop-color="#FFFFFF"
         stop-opacity="0.27058825"
         id="stop2"
         style="stop-color:#e3dedb;stop-opacity:0.21612903" />
      <stop
         offset="1"
         stop-color="#2A2A2A"
         stop-opacity="0.6392157"
         id="stop4" />
    </linearGradient>
    <linearGradient
       x1="18.296173"
       y1="0"
       x2="18.296173"
       y2="36.59235"
       id="gradient_2-2"
       gradientTransform="scale(2.8147961,0.35526552)"
       gradientUnits="userSpaceOnUse"
       xlink:href="#linearGradient1177">
      <stop
         offset="0"
         stop-color="#372E2C"
         id="stop7" />
      <stop
         offset="0.176"
         stop-color="#5B4A45"
         id="stop9" />
      <stop
         offset="1"
         stop-color="#5B4A44"
         id="stop11" />
    </linearGradient>
    <linearGradient
       x1="18.296173"
       y1="0"
       x2="18.296173"
       y2="36.59235"
       id="linearGradient1177"
       gradientTransform="scale(2.8147961,0.35526552)"
       gradientUnits="userSpaceOnUse"
       spreadMethod="pad">
      <stop
         offset="0"
         stop-color="#372E2C"
         id="stop1171"
         style="stop-color:#a98d87;stop-opacity:1" />
      <stop
         offset="0.176"
         stop-color="#5B4A45"
         id="stop1173" />
      <stop
         offset="1"
         stop-color="#5B4A44"
         id="stop1175" />
    </linearGradient>
    <linearGradient
       inkscape:collect="always"
       xlink:href="#linearGradient1221"
       id="linearGradient1223"
       x1="53.150715"
       y1="13.332228"
       x2="53.210419"
       y2="0.17014217"
       gradientUnits="userSpaceOnUse"
       gradientTransform="matrix(1.2599449,0,0,1,1.0096238,2)" />
    <linearGradient
       inkscape:collect="always"
       id="linearGradient1221">
      <stop
         style="stop-color:#ffffff;stop-opacity:0.19230769"
         offset="0"
         id="stop1217" />
      <stop
         style="stop-color:#000000;stop-opacity:0;"
         offset="1"
         id="stop1219" />
    </linearGradient>
    <linearGradient
       inkscape:collect="always"
       xlink:href="#gradient_2-2"
       id="linearGradient1010"
       gradientUnits="userSpaceOnUse"
       gradientTransform="matrix(3.5608785,0,0,0.37392371,0.99973288,2)"
       x1="18.296173"
       y1="0"
       x2="18.296173"
       y2="36.59235" />
  </defs>
  <path
     d="M 0.39971168,7.42857 V 4.21429 c 0,-0.8876 -0.1297978,-1.64522 0.4093103,-2.272848 C 1.3481352,1.313814 1.9988886,1 2.7613093,1 H 103.07592 c 0.76182,0 1.41281,0.313814 1.95198,0.941442 0.53917,0.627628 0.30949,1.385248 0.30949,2.272848 v 8.17156 c 0,0.8876 0.22968,2.04505 -0.30949,2.67275 -0.53917,0.6276 -1.19016,0.54155 -1.95198,0.54155 H 2.7613093 c -0.7624207,0 -1.4131741,0.08605 -1.95228732,-0.54155 -0.5391081,-0.6277 -0.4093103,-1.78515 -0.4093103,-2.67275 z"
     id="Rectangle"
     style="opacity:0;fill:url(#gradient_1-8);fill-opacity:1"
     sodipodi:nodetypes="cscssssscsscsc" />
  <path
     d="M 0.72674928,5.489076 V 3.682513 c 0,-0.498867 0.17207537,-0.924672 0.51622492,-1.277424 C 1.5871234,2.052337 2.0025485,1.875961 2.4892441,1.875961 H 104.24555 c 0.48552,0 0.90206,0.176376 1.24575,0.529128 0.34368,0.352752 0.51616,0.778557 0.51616,1.277424 v 10.941091 c -0.0809,1.077828 -0.72563,1.486022 -1.76191,1.806596 H 2.4892441 C 1.1678882,16.234574 0.94719226,15.462639 0.72674928,14.623604 Z"
     id="path1191"
     style="fill:url(#linearGradient1223);fill-opacity:1;stroke:none;stroke-opacity:1"
     sodipodi:nodetypes="cssssssccccc" />
  <path
     d="M 0.99973288,6.560913 V 4.280462 c 0,-0.629733 0.22515742,-1.167244 0.67547352,-1.612531 C 2.1255225,2.222644 2.6691026,2 3.305945,2 h 99.310585 c 0.63633,0 1.18031,0.222644 1.63066,0.667931 0.45036,0.445287 0.67555,0.982798 0.67555,1.612531 v 9.439045 c 0,0.629722 -0.22519,1.167244 -0.67555,1.612564 C 103.79684,15.777392 103.25286,16 102.61653,16 H 3.305945 C 2.6691026,16 2.1255225,15.777392 1.6752064,15.332071 1.2248903,14.886751 0.99973288,14.349229 0.99973288,13.719507 Z"
     id="path21"
     style="fill:url(#linearGradient1010)"
     sodipodi:nodetypes="cssssssssssssc" />
  <path
     d="M 1.5627217,5.854058 V 4.2087118 c 0,-0.4543481 0.1698185,-0.8421546 0.5094541,-1.1634273 0.3396358,-0.3212717 0.7496127,-0.481908 1.2299246,-0.481908 H 103.19745 c 0.47914,0 0.89019,0.1606363 1.22938,0.481908 0.33918,0.3212727 0.50943,0.7090792 0.50943,1.1634273 v 9.5833102 c 0,0.454379 -0.17025,0.842195 -0.50943,1.163447 -0.33919,0.321253 -0.75024,0.481929 -1.22938,0.481929 H 3.3021004 c -0.4803119,0 -0.8902888,-0.160676 -1.2299246,-0.481929 C 1.7325402,14.634217 1.5627217,14.246401 1.5627217,13.792022 Z"
     id="path23"
     fill="none"
     fill-rule="evenodd"
     stroke="#0c0706"
     stroke-width="0.1"
     sodipodi:nodetypes="cssssssssssssc" />
  <path
     d="m 99.035374,11 -2.37633,-4 4.752636,1e-6 z"
     id="Shape"
     fill="#dbd7d7"
     fill-rule="evenodd"
     stroke="none"
     style="" />
</svg>

<?xml version="1.0" encoding="utf-8"?>
<svg width="106px" height="18px" viewBox="0 0 106 18" version="1.1" xmlns:xlink="http://www.w3.org/1999/xlink" xmlns="http://www.w3.org/2000/svg">
  <defs>
    <linearGradient x1="0.5729929" y1="0.8707248" x2="0.5724863" y2="0.2564793" id="gradient_1">
      <stop offset="0%" stop-color="#E3DEDB" stop-opacity="0.21568628" />
      <stop offset="100%" stop-color="#2A2A2A" stop-opacity="0.6392157" />
    </linearGradient>
    <linearGradient x1="53.150715" y1="13.332228" x2="53.21042" y2="0.17014217" id="gradient_2">
      <stop offset="0%" stop-color="#FFFFFF" stop-opacity="0.19215687" />
      <stop offset="100%" stop-color="#000000" stop-opacity="0" />
    </linearGradient>
    <linearGradient x1="0.48593917" y1="-0.14285715" x2="0.48593917" y2="0.7857143" id="gradient_3">
      <stop offset="0%" stop-color="#372E2C" />
      <stop offset="17.6%" stop-color="#5B4A45" />
      <stop offset="100%" stop-color="#5B4A44" />
    </linearGradient>
    <path d="M0 0L106 0L106 18L0 18L0 0Z" id="path_1" />
    <rect width="106" height="18" id="artboard_1" />
    <clipPath id="clip_1">
      <use xlink:href="#artboard_1" clip-rule="evenodd" />
    </clipPath>
    <clipPath id="mask_1">
      <use xlink:href="#path_1" />
    </clipPath>
  </defs>
  <g id="bmp00168" clip-path="url(#clip_1)">
    <path d="M0 0L106 0L106 18L0 18L0 0Z" id="Background" fill="none" fill-rule="evenodd" stroke="none" />
    <g clip-path="url(#mask_1)">
      <path d="M0.399713 7.42857L0.399713 4.21429C0.399713 3.32669 0.269915 2.56907 0.809024 1.94144C1.34814 1.31381 1.99889 1 2.76131 1L103.076 1C103.838 1 104.489 1.31381 105.028 1.94144C105.567 2.56907 105.337 3.32669 105.337 4.21429L105.337 12.3858C105.337 13.2734 105.567 14.4309 105.028 15.0586C104.489 15.6862 103.838 15.6001 103.076 15.6001L2.76131 15.6001C1.99889 15.6001 1.34814 15.6862 0.809024 15.0586C0.269916 14.4309 0.399713 13.2734 0.399713 12.3858L0.399713 7.42857Z" id="Rectangle" fill="url(#gradient_1)" fill-opacity="0" stroke="none" />
      <path d="M0.726746 5.48908L0.726746 3.68251C0.726746 3.18365 0.898821 2.75784 1.24297 2.40509C1.58712 2.05234 2.00254 1.87596 2.48924 1.87596L104.246 1.87596C104.731 1.87596 105.148 2.05234 105.491 2.40509C105.835 2.75784 106.007 3.18365 106.007 3.68251L106.007 14.6236C105.927 15.7014 105.282 16.1096 104.246 16.4302L2.48924 16.4302C1.16788 16.2346 0.947189 15.4626 0.726746 14.6236L0.726746 5.48908Z" id="path1191" fill="url(#gradient_2)" stroke="none" />
      <path d="M0.999733 6.56091L0.999733 4.28046C0.999733 3.65073 1.22489 3.11322 1.67521 2.66793C2.12552 2.22264 2.6691 2 3.30594 2L102.617 2C103.253 2 103.797 2.22264 104.247 2.66793C104.698 3.11322 104.923 3.65073 104.923 4.28046L104.923 13.7195C104.923 14.3492 104.698 14.8868 104.247 15.3321C103.797 15.7774 103.253 16 102.617 16L3.30594 16C2.6691 16 2.12552 15.7774 1.67521 15.3321C1.22489 14.8868 0.999733 14.3492 0.999733 13.7195L0.999733 6.56091Z" id="path21" fill="url(#gradient_3)" stroke="none" />
      <path d="M1.5 5.82288L1.5 4.16144C1.5 3.70264 1.67003 3.31104 2.01008 2.98662C2.35013 2.66221 2.76061 2.5 3.24151 2.5L103.259 2.5C103.739 2.5 104.15 2.66221 104.49 2.98662C104.83 3.31104 105 3.70264 105 4.16144L105 13.8385C105 14.2973 104.83 14.689 104.49 15.0134C104.15 15.3378 103.739 15.5 103.259 15.5L3.24151 15.5C2.76061 15.5 2.35013 15.3378 2.01008 15.0134C1.67003 14.689 1.5 14.2973 1.5 13.8385L1.5 5.82288Z" id="path23" fill="none" fill-rule="evenodd" stroke="#0C0706" stroke-width="1" />
      <path d="M99.0354 11L96.659 7L101.412 7L99.0354 11Z" id="Shape" fill="#DBD7D7" fill-rule="evenodd" stroke="none" />
    </g>
  </g>
</svg>
